X: 7834
T: Coming From The Races
R: polka
M: 2/4
K: Dmajor
DE|:F2 F2|AF ED|E2 EF|ED DE|
F2 F2|AF ED|E2 D2|1 D2 DE:|2 D2 dc|
|:B2 Bc|BA FG|AB AF|AF dc|
B2 Bc|BA FA|B2 A2|1 A2 dc:|2 A2||

